build/img/youtube.svg

<svg width="28" height="20" viewBox="0 0 28 20" fill="none" xmlns="http://www.w3.org/2000/svg">
<path d="M11.2352 13.9312L18.0906 9.96846L11.2352 6.00576V13.9312ZM26.5047 3.58852C26.6765 4.20934 26.7953 5.04151 26.8746 6.09822C26.9671 7.15494 27.0067 8.06636 27.0067 8.8589L27.0859 9.96846C27.0859 12.8612 26.8746 14.9879 26.5047 16.3484C26.1745 17.5372 25.4084 18.3033 24.2196 18.6336C23.5988 18.8053 22.4628 18.9241 20.7192 19.0034C19.002 19.0959 17.4302 19.1355 15.9772 19.1355L13.877 19.2147C8.34239 19.2147 4.89484 19.0034 3.53432 18.6336C2.34551 18.3033 1.57939 17.5372 1.24916 16.3484C1.07745 15.7276 0.958567 14.8954 0.879313 13.8387C0.78685 12.782 0.747223 11.8706 0.747223 11.078L0.667969 9.96846C0.667969 7.07569 0.879313 4.94904 1.24916 3.58852C1.57939 2.39971 2.34551 1.63359 3.53432 1.30336C4.15514 1.13165 5.29111 1.01277 7.0347 0.933512C8.75187 0.841049 10.3237 0.801422 11.7767 0.801422L13.877 0.722168C19.4115 0.722168 22.8591 0.933512 24.2196 1.30336C25.4084 1.63359 26.1745 2.39971 26.5047 3.58852Z" fill="#3F3740" fill-opacity="0.3"/>
</svg>

<svg width="28" height="20" fill="none" xmlns="http://www.w3.org/2000/svg"><path d="M11.235 13.931l6.856-3.963-6.856-3.962v7.925zM26.505 3.59c.172.62.29 1.453.37 2.51.092 1.056.132 1.967.132 2.76l.079 1.11c0 2.892-.211 5.019-.581 6.38-.33 1.188-1.097 1.954-2.285 2.285-.621.171-1.757.29-3.5.37a88 88 0 01-4.743.131l-2.1.08c-5.535 0-8.982-.212-10.343-.581-1.188-.33-1.955-1.097-2.285-2.286-.172-.62-.29-1.453-.37-2.51a31.78 31.78 0 01-.132-2.76l-.079-1.11c0-2.892.211-5.019.581-6.38.33-1.188 1.097-1.954 2.285-2.285.621-.171 1.757-.29 3.5-.37a88.036 88.036 0 014.743-.132l2.1-.079c5.534 0 8.982.212 10.343.581 1.188.33 1.954 1.097 2.285 2.286z" fill="#3F3740" fill-opacity=".3"/></svg>
